src/assets/theme-color.svg

<svg fill="none" height="32" viewBox="0 0 32 32" width="32" xmlns="http://www.w3.org/2000/svg" xmlns:xlink="http://www.w3.org/1999/xlink"><mask id="a" height="9" maskUnits="userSpaceOnUse" width="8" x="15" y="8"><path d="m15 8h8v9h-8z" fill="#c4c4c4"/><path d="m15.5 8.5h7v8h-7z" fill="none" stroke="#000" stroke-opacity=".8"/></mask><mask id="b" fill="#fff"><path clip-rule="evenodd" d="m13 10h-3v12h3zm-3-1c-.55228 0-1 .44772-1 1v12c0 .5523.44772 1 1 1h3c.5523 0 1-.4477 1-1v-12c0-.55228-.4477-1-1-1z" fill="#fff" fill-rule="evenodd"/></mask><mask id="c" fill="#fff"><path d="m22 18c.5523 0 1 .4477 1 1v3c0 .5523-.4477 1-1 1h-7v-1h7v-3h-7v-1z" fill="#fff"/></mask><path d="m0 0h32v32h-32z" fill="#fff"/><g mask="url(#a)"><path clip-rule="evenodd" d="m20.435 13.5355-9.1923 9.1924-2.12137-2.1213 9.19237-9.1924zm-2.8284-2.8284c.3905-.3905 1.0237-.3905 1.4142 0l2.1213 2.1213c.3906.3906.3906 1.0237 0 1.4142l-9.1923 9.1924c-.3906.3906-1.0237.3906-1.4143 0l-2.12127-2.1213c-.39053-.3905-.39053-1.0237 0-1.4142z" fill="#000" fill-opacity=".8" fill-rule="evenodd"/></g><g fill="#000" fill-opacity=".8"><path d="m10 10v-1h-1v1zm3 0h1v-1h-1zm-3 12h-1v1h1zm3 0v1h1v-1zm-3-11h3v-2h-3zm1 11v-12h-2v12zm2-1h-3v2h3zm-1-11v12h2v-12zm-2 0v-2c-1.10457 0-2 .89543-2 2zm0 12v-12h-2v12zm0 0h-2c0 1.1046.89543 2 2 2zm3 0h-3v2h3zm0 0v2c1.1046 0 2-.8954 2-2zm0-12v12h2v-12zm0 0h2c0-1.10457-.8954-2-2-2zm-3 0h3v-2h-3z" mask="url(#b)"/><path d="m10.75 20.5c0-.4142.3358-.75.75-.75s.75.3358.75.75-.3358.75-.75.75-.75-.3358-.75-.75z"/><path d="m15 23h-1v1h1zm0-5v-1h-1v1zm7 4v1h1v-1zm0-3h1v-1h-1zm-7 3v-1h-1v1zm0-3h-1v1h1zm9 0c0-1.1046-.8954-2-2-2v2zm0 3v-3h-2v3zm-2 2c1.1046 0 2-.8954 2-2h-2zm-7 0h7v-2h-7zm7-7h-7v2h7zm1 5v-3h-2v3zm-8 1h7v-2h-7zm7-5h-7v2h7zm-8 0v1h2v-1zm0 4v1h2v-1z" mask="url(#c)"/></g><path d="m10 10h3v3h-3z" fill="#189ffb"/><path d="m10 13h3v3h-3z" fill="#a8cdec"/><path d="m10 16h3v3h-3z" fill="#daebf7"/></svg>

<svg width="32" height="32" viewBox="0 0 32 32" fill="none" xmlns="http://www.w3.org/2000/svg">
<mask id="mask0" mask-type="alpha" maskUnits="userSpaceOnUse" x="15" y="8" width="8" height="9">
<path d="M15 8H23V17H15V8Z" fill="#C4C4C4"/>
<path d="M15.5 8.5H22.5V16.5H15.5V8.5Z" stroke="black" stroke-opacity="0.8"/>
</mask>
<g mask="url(#mask0)">
<path fill-rule="evenodd" clip-rule="evenodd" d="M20.435 13.5355L11.2427 22.7279L9.12133 20.6066L18.3137 11.4142L20.435 13.5355ZM17.6066 10.7071C17.9971 10.3166 18.6303 10.3166 19.0208 10.7071L21.1421 12.8284C21.5327 13.219 21.5327 13.8521 21.1421 14.2426L11.9498 23.435C11.5592 23.8256 10.9261 23.8256 10.5355 23.435L8.41423 21.3137C8.0237 20.9232 8.0237 20.29 8.41423 19.8995L17.6066 10.7071Z" fill="black" fill-opacity="0.8"/>
</g>
<mask id="path-4-inside-1" fill="white">
<path fill-rule="evenodd" clip-rule="evenodd" d="M13 10H10L10 22H13V10ZM10 9C9.44772 9 9 9.44772 9 10V22C9 22.5523 9.44772 23 10 23H13C13.5523 23 14 22.5523 14 22V10C14 9.44772 13.5523 9 13 9H10Z"/>
</mask>
<path d="M10 10V9H9L9 10L10 10ZM13 10H14V9H13V10ZM10 22L9 22L9 23H10V22ZM13 22V23H14V22H13ZM10 11H13V9H10V11ZM11 22L11 10L9 10L9 22L11 22ZM13 21H10V23H13V21ZM12 10V22H14V10H12ZM10 10V10V8C8.89543 8 8 8.89543 8 10H10ZM10 22V10H8V22H10ZM10 22H10H8C8 23.1046 8.89543 24 10 24V22ZM13 22H10V24H13V22ZM13 22V24C14.1046 24 15 23.1046 15 22H13ZM13 10V22H15V10H13ZM13 10H15C15 8.89543 14.1046 8 13 8V10ZM10 10H13V8H10V10Z" fill="black" fill-opacity="0.8" mask="url(#path-4-inside-1)"/>
<path d="M10.75 20.5C10.75 20.0858 11.0858 19.75 11.5 19.75V19.75C11.9142 19.75 12.25 20.0858 12.25 20.5V20.5C12.25 20.9142 11.9142 21.25 11.5 21.25V21.25C11.0858 21.25 10.75 20.9142 10.75 20.5V20.5Z" fill="black" fill-opacity="0.8"/>
<mask id="path-7-inside-2" fill="white">
<path d="M22 18C22.5523 18 23 18.4477 23 19L23 22C23 22.5523 22.5523 23 22 23L15 23L15 22L22 22L22 19L15 19L15 18L22 18Z"/>
</mask>
<path d="M15 23L14 23L14 24L15 24L15 23ZM15 18L15 17L14 17L14 18L15 18ZM22 22L22 23L23 23L23 22L22 22ZM22 19L23 19L23 18L22 18L22 19ZM15 22L15 21L14 21L14 22L15 22ZM15 19L14 19L14 20L15 20L15 19ZM24 19C24 17.8954 23.1046 17 22 17L22 19L22 19L24 19ZM24 22L24 19L22 19L22 22L24 22ZM22 24C23.1046 24 24 23.1046 24 22L22 22L22 24ZM15 24L22 24L22 22L15 22L15 24ZM22 17L15 17L15 19L22 19L22 17ZM23 22L23 19L21 19L21 22L23 22ZM15 23L22 23L22 21L15 21L15 23ZM22 18L15 18L15 20L22 20L22 18ZM14 18L14 19L16 19L16 18L14 18ZM14 22L14 23L16 23L16 22L14 22Z" fill="black" fill-opacity="0.8" mask="url(#path-7-inside-2)"/>
<rect x="10" y="10" width="3" height="3" fill="#189FFB"/>
<rect x="10" y="13" width="3" height="3" fill="#A8CDEC"/>
<rect x="10" y="16" width="3" height="3" fill="#DAEBF7"/>
</svg>
